X:1
M:6/8
K:A
CB,|A,CA, CA,C|ECE AEA|FAF DFD|EAE CEC|
DFD B,DB,|CEC A,CA,|B,DB, G,B,G,|A,2A, A,::
AB,|DDC DFA,|G,B,C CCE|B,DB, G,F,|CDD EEF|EED D2E|
EDC EFG|AAG AGB|dcB BAG|G3 -A2:|